X:0414
T:Les Plaiseurs des Dames.
M:6/8
L:1/8
Q:3/8=120
P:ABA
N:Aird prints a da capo
I: :: :: DC
Z:Jack Campin * www.campin.me.uk * 2009
K:G
P:A
B2B|d2c A2A|d2B G2G|c2B ABG | FED
B2B|d2c A2A|d2B G2G|AcB AGF | G3::
P:B
ABA|d2A d2f|e3  g2a|g2f efd |^cBA
f2f|a2g e2e|a2f d2d|egf ed^c| d3
ded|g2g BcB|d2d GAG|c2B A2g |Hd3:|
<end>
<start>
